public/images/web/e_commerce/logo_e-commerce.svg

<svg xmlns="http://www.w3.org/2000/svg" width="500" height="345" fill="none"><path fill="#3CB371" d="M0 0h500v345H0z"/><path fill="#fff" d="M104.688 167.434c3.168 0 5.634.972 7.398 2.916 1.8 1.908 2.7 4.896 2.7 8.964H95.724l-.054-1.026h13.932c.072-1.764-.072-3.384-.432-4.86-.36-1.512-.936-2.718-1.728-3.618-.756-.9-1.746-1.35-2.97-1.35-1.656 0-3.132.828-4.428 2.484-1.26 1.656-2.016 4.284-2.268 7.884l.162.216c-.072.54-.126 1.134-.162 1.782a35.04 35.04 0 0 0-.054 1.944c0 2.448.396 4.554 1.188 6.318.792 1.764 1.818 3.114 3.078 4.05 1.296.9 2.628 1.35 3.996 1.35a9.67 9.67 0 0 0 3.078-.486c.972-.36 1.872-.936 2.7-1.728.828-.792 1.548-1.854 2.16-3.186l1.08.432c-.396 1.188-1.044 2.34-1.944 3.456-.9 1.116-2.034 2.034-3.402 2.754-1.368.684-2.952 1.026-4.752 1.026-2.592 0-4.824-.594-6.696-1.782-1.836-1.188-3.258-2.826-4.266-4.914-.972-2.124-1.458-4.554-1.458-7.29 0-3.168.504-5.886 1.512-8.154 1.008-2.304 2.43-4.068 4.266-5.292 1.836-1.26 3.978-1.89 6.426-1.89Zm35.848 12.474v3.132h-19.494v-3.132h19.494Zm18.794-12.474c1.152 0 2.268.144 3.348.432 1.08.288 2.052.72 2.916 1.296.828.54 1.458 1.17 1.89 1.89.432.684.648 1.44.648 2.268 0 .972-.27 1.728-.81 2.268-.54.504-1.224.756-2.052.756a3.373 3.373 0 0 1-2.106-.702c-.576-.468-.864-1.134-.864-1.998 0-.828.216-1.494.648-1.998.468-.504 1.008-.828 1.62-.972-.36-.648-1.008-1.188-1.944-1.62a6.65 6.65 0 0 0-2.916-.648c-.9 0-1.8.216-2.7.648-.9.432-1.728 1.152-2.484 2.16-.756.972-1.368 2.322-1.836 4.05-.468 1.692-.702 3.816-.702 6.372 0 3.168.36 5.688 1.08 7.56.72 1.872 1.656 3.222 2.808 4.05a6.868 6.868 0 0 0 3.888 1.188c.936 0 1.89-.18 2.862-.54.972-.36 1.89-.936 2.754-1.728.864-.828 1.602-1.926 2.214-3.294l1.026.378c-.36 1.152-.954 2.322-1.782 3.51-.828 1.152-1.908 2.106-3.24 2.862-1.332.756-2.97 1.134-4.914 1.134-2.232 0-4.248-.576-6.048-1.728-1.8-1.152-3.24-2.79-4.32-4.914-1.044-2.16-1.566-4.716-1.566-7.668s.522-5.544 1.566-7.776c1.08-2.268 2.574-4.032 4.482-5.292 1.908-1.296 4.086-1.944 6.534-1.944Zm25.991 0c2.304 0 4.374.504 6.21 1.512 1.836 1.008 3.294 2.592 4.374 4.752 1.116 2.16 1.674 4.968 1.674 8.424 0 3.456-.558 6.264-1.674 8.424-1.08 2.124-2.538 3.69-4.374 4.698-1.836 1.008-3.906 1.512-6.21 1.512-2.268 0-4.338-.504-6.21-1.512-1.836-1.008-3.312-2.574-4.428-4.698-1.08-2.16-1.62-4.968-1.62-8.424 0-3.456.54-6.264 1.62-8.424 1.116-2.16 2.592-3.744 4.428-4.752 1.872-1.008 3.942-1.512 6.21-1.512Zm0 1.08c-2.052 0-3.744 1.062-5.076 3.186-1.296 2.124-1.944 5.598-1.944 10.422 0 4.824.648 8.298 1.944 10.422 1.332 2.088 3.024 3.132 5.076 3.132 2.052 0 3.726-1.044 5.022-3.132 1.332-2.124 1.998-5.598 1.998-10.422 0-4.824-.666-8.298-1.998-10.422-1.296-2.124-2.97-3.186-5.022-3.186Zm34.174-1.08c1.26 0 2.358.18 3.294.54.936.36 1.71.864 2.322 1.512.684.72 1.152 1.656 1.404 2.808s.378 2.574.378 4.266v14.418c0 1.512.306 2.538.918 3.078.648.54 1.71.81 3.186.81V196c-.612-.036-1.548-.072-2.808-.108a64.397 64.397 0 0 0-3.672-.108c-1.188 0-2.358.036-3.51.108a91.322 91.322 0 0 0-2.538.108v-1.134c1.296 0 2.214-.27 2.754-.81s.81-1.566.81-3.078v-15.606c0-1.116-.072-2.142-.216-3.078-.144-.936-.504-1.692-1.08-2.268-.576-.576-1.512-.864-2.808-.864a6.015 6.015 0 0 0-3.78 1.296c-1.08.864-1.944 2.052-2.592 3.564-.612 1.476-.918 3.132-.918 4.968v11.988c0 1.512.27 2.538.81 3.078s1.458.81 2.754.81V196a90.97 90.97 0 0 0-2.592-.108 53.7 53.7 0 0 0-3.456-.108c-1.188 0-2.412.036-3.672.108-1.26.036-2.196.072-2.808.108v-1.134c1.476 0 2.52-.27 3.132-.81.648-.54.972-1.566.972-3.078v-16.902c0-1.62-.288-2.808-.864-3.564-.576-.792-1.656-1.188-3.24-1.188v-1.134c1.152.108 2.268.162 3.348.162 1.044 0 2.034-.054 2.97-.162a16.926 16.926 0 0 0 2.646-.594v6.372c.936-2.34 2.214-4.014 3.834-5.022s3.294-1.512 5.022-1.512Zm16.254 0c1.26 0 2.358.18 3.294.54.936.36 1.71.864 2.322 1.512.684.72 1.152 1.656 1.404 2.808s.378 2.574.378 4.266v14.418c0 1.512.306 2.538.918 3.078.648.54 1.71.81 3.186.81V196c-.612-.036-1.548-.072-2.808-.108a64.397 64.397 0 0 0-3.672-.108c-1.188 0-2.358.036-3.51.108a91.322 91.322 0 0 0-2.538.108v-1.134c1.296 0 2.214-.27 2.754-.81s.81-1.566.81-3.078v-15.606c0-1.116-.072-2.142-.216-3.078-.144-.936-.504-1.692-1.08-2.268-.576-.576-1.512-.864-2.808-.864a6.015 6.015 0 0 0-3.78 1.296c-1.08.864-1.944 2.034-2.592 3.51-.612 1.476-.918 3.132-.918 4.968l-.162-5.022c.972-2.484 2.286-4.176 3.942-5.076 1.656-.936 3.348-1.404 5.076-1.404Zm31.682 0c1.26 0 2.358.18 3.294.54.936.36 1.71.864 2.322 1.512.684.72 1.152 1.656 1.404 2.808s.378 2.574.378 4.266v14.418c0 1.512.306 2.538.918 3.078.648.54 1.71.81 3.186.81V196c-.612-.036-1.548-.072-2.808-.108a64.397 64.397 0 0 0-3.672-.108c-1.188 0-2.358.036-3.51.108a91.322 91.322 0 0 0-2.538.108v-1.134c1.296 0 2.214-.27 2.754-.81s.81-1.566.81-3.078v-15.606c0-1.116-.072-2.142-.216-3.078-.144-.936-.504-1.692-1.08-2.268-.576-.576-1.512-.864-2.808-.864a6.015 6.015 0 0 0-3.78 1.296c-1.08.864-1.944 2.052-2.592 3.564-.612 1.476-.918 3.132-.918 4.968v11.988c0 1.512.27 2.538.81 3.078s1.458.81 2.754.81V196a90.97 90.97 0 0 0-2.592-.108 53.7 53.7 0 0 0-3.456-.108c-1.188 0-2.412.036-3.672.108-1.26.036-2.196.072-2.808.108v-1.134c1.476 0 2.52-.27 3.132-.81.648-.54.972-1.566.972-3.078v-16.902c0-1.62-.288-2.808-.864-3.564-.576-.792-1.656-1.188-3.24-1.188v-1.134c1.152.108 2.268.162 3.348.162 1.044 0 2.034-.054 2.97-.162a16.926 16.926 0 0 0 2.646-.594v6.372c.936-2.34 2.214-4.014 3.834-5.022s3.294-1.512 5.022-1.512Zm16.254 0c1.26 0 2.358.18 3.294.54.936.36 1.71.864 2.322 1.512.684.72 1.152 1.656 1.404 2.808s.378 2.574.378 4.266v14.418c0 1.512.306 2.538.918 3.078.648.54 1.71.81 3.186.81V196c-.612-.036-1.548-.072-2.808-.108a64.397 64.397 0 0 0-3.672-.108c-1.188 0-2.358.036-3.51.108a91.322 91.322 0 0 0-2.538.108v-1.134c1.296 0 2.214-.27 2.754-.81s.81-1.566.81-3.078v-15.606c0-1.116-.072-2.142-.216-3.078-.144-.936-.504-1.692-1.08-2.268-.576-.576-1.512-.864-2.808-.864a6.015 6.015 0 0 0-3.78 1.296c-1.08.864-1.944 2.034-2.592 3.51-.612 1.476-.918 3.132-.918 4.968l-.162-5.022c.972-2.484 2.286-4.176 3.942-5.076 1.656-.936 3.348-1.404 5.076-1.404Zm26.983 0c3.168 0 5.634.972 7.398 2.916 1.8 1.908 2.7 4.896 2.7 8.964h-19.062l-.054-1.026h13.932c.072-1.764-.072-3.384-.432-4.86-.36-1.512-.936-2.718-1.728-3.618-.756-.9-1.746-1.35-2.97-1.35-1.656 0-3.132.828-4.428 2.484-1.26 1.656-2.016 4.284-2.268 7.884l.162.216c-.072.54-.126 1.134-.162 1.782a35.04 35.04 0 0 0-.054 1.944c0 2.448.396 4.554 1.188 6.318.792 1.764 1.818 3.114 3.078 4.05 1.296.9 2.628 1.35 3.996 1.35a9.67 9.67 0 0 0 3.078-.486c.972-.36 1.872-.936 2.7-1.728.828-.792 1.548-1.854 2.16-3.186l1.08.432c-.396 1.188-1.044 2.34-1.944 3.456-.9 1.116-2.034 2.034-3.402 2.754-1.368.684-2.952 1.026-4.752 1.026-2.592 0-4.824-.594-6.696-1.782-1.836-1.188-3.258-2.826-4.266-4.914-.972-2.124-1.458-4.554-1.458-7.29 0-3.168.504-5.886 1.512-8.154 1.008-2.304 2.43-4.068 4.266-5.292 1.836-1.26 3.978-1.89 6.426-1.89Zm30.989 0c.972 0 1.818.198 2.538.594.756.396 1.332.918 1.728 1.566.432.612.648 1.314.648 2.106 0 .9-.288 1.692-.864 2.376-.54.684-1.278 1.026-2.214 1.026a3.077 3.077 0 0 1-1.998-.702c-.576-.504-.864-1.206-.864-2.106 0-.684.18-1.26.54-1.728.396-.504.828-.9 1.296-1.188-.252-.36-.63-.54-1.134-.54-1.116 0-2.142.342-3.078 1.026-.936.648-1.728 1.494-2.376 2.538a14.042 14.042 0 0 0-1.512 3.348c-.36 1.152-.54 2.232-.54 3.24v11.448c0 1.764.504 2.952 1.512 3.564 1.044.576 2.448.864 4.212.864V196c-.828-.036-1.998-.072-3.51-.108a101.258 101.258 0 0 0-4.806-.108c-1.224 0-2.448.036-3.672.108-1.188.036-2.088.072-2.7.108v-1.134c1.476 0 2.52-.27 3.132-.81.648-.54.972-1.566.972-3.078v-16.902c0-1.62-.288-2.808-.864-3.564-.576-.792-1.656-1.188-3.24-1.188v-1.134c1.152.108 2.268.162 3.348.162 1.044 0 2.034-.054 2.97-.162a16.926 16.926 0 0 0 2.646-.594v6.75c.396-1.044.954-2.088 1.674-3.132a10.691 10.691 0 0 1 2.7-2.7 5.955 5.955 0 0 1 3.456-1.08Zm19.698 0c1.152 0 2.268.144 3.348.432 1.08.288 2.052.72 2.916 1.296.828.54 1.458 1.17 1.89 1.89.432.684.648 1.44.648 2.268 0 .972-.27 1.728-.81 2.268-.54.504-1.224.756-2.052.756a3.373 3.373 0 0 1-2.106-.702c-.576-.468-.864-1.134-.864-1.998 0-.828.216-1.494.648-1.998.468-.504 1.008-.828 1.62-.972-.36-.648-1.008-1.188-1.944-1.62a6.65 6.65 0 0 0-2.916-.648c-.9 0-1.8.216-2.7.648-.9.432-1.728 1.152-2.484 2.16-.756.972-1.368 2.322-1.836 4.05-.468 1.692-.702 3.816-.702 6.372 0 3.168.36 5.688 1.08 7.56.72 1.872 1.656 3.222 2.808 4.05a6.868 6.868 0 0 0 3.888 1.188c.936 0 1.89-.18 2.862-.54.972-.36 1.89-.936 2.754-1.728.864-.828 1.602-1.926 2.214-3.294l1.026.378c-.36 1.152-.954 2.322-1.782 3.51-.828 1.152-1.908 2.106-3.24 2.862-1.332.756-2.97 1.134-4.914 1.134-2.232 0-4.248-.576-6.048-1.728-1.8-1.152-3.24-2.79-4.32-4.914-1.044-2.16-1.566-4.716-1.566-7.668s.522-5.544 1.566-7.776c1.08-2.268 2.574-4.032 4.482-5.292 1.908-1.296 4.086-1.944 6.534-1.944Zm25.884 0c3.168 0 5.634.972 7.398 2.916 1.8 1.908 2.7 4.896 2.7 8.964h-19.062l-.054-1.026h13.932c.072-1.764-.072-3.384-.432-4.86-.36-1.512-.936-2.718-1.728-3.618-.756-.9-1.746-1.35-2.97-1.35-1.656 0-3.132.828-4.428 2.484-1.26 1.656-2.016 4.284-2.268 7.884l.162.216c-.072.54-.126 1.134-.162 1.782a35.04 35.04 0 0 0-.054 1.944c0 2.448.396 4.554 1.188 6.318.792 1.764 1.818 3.114 3.078 4.05 1.296.9 2.628 1.35 3.996 1.35a9.67 9.67 0 0 0 3.078-.486c.972-.36 1.872-.936 2.7-1.728.828-.792 1.548-1.854 2.16-3.186l1.08.432c-.396 1.188-1.044 2.34-1.944 3.456-.9 1.116-2.034 2.034-3.402 2.754-1.368.684-2.952 1.026-4.752 1.026-2.592 0-4.824-.594-6.696-1.782-1.836-1.188-3.258-2.826-4.266-4.914-.972-2.124-1.458-4.554-1.458-7.29 0-3.168.504-5.886 1.512-8.154 1.008-2.304 2.43-4.068 4.266-5.292 1.836-1.26 3.978-1.89 6.426-1.89Z"/></svg>

<svg width="500" height="345" viewBox="0 0 500 345" fill="none" xmlns="http://www.w3.org/2000/svg">
<rect width="500" height="345" fill="#3CB371"/>
<path d="M104.688 167.434C107.856 167.434 110.322 168.406 112.086 170.35C113.886 172.258 114.786 175.246 114.786 179.314H95.724L95.67 178.288H109.602C109.674 176.524 109.53 174.904 109.17 173.428C108.81 171.916 108.234 170.71 107.442 169.81C106.686 168.91 105.696 168.46 104.472 168.46C102.816 168.46 101.34 169.288 100.044 170.944C98.784 172.6 98.028 175.228 97.776 178.828L97.938 179.044C97.866 179.584 97.812 180.178 97.776 180.826C97.74 181.474 97.722 182.122 97.722 182.77C97.722 185.218 98.118 187.324 98.91 189.088C99.702 190.852 100.728 192.202 101.988 193.138C103.284 194.038 104.616 194.488 105.984 194.488C107.064 194.488 108.09 194.326 109.062 194.002C110.034 193.642 110.934 193.066 111.762 192.274C112.59 191.482 113.31 190.42 113.922 189.088L115.002 189.52C114.606 190.708 113.958 191.86 113.058 192.976C112.158 194.092 111.024 195.01 109.656 195.73C108.288 196.414 106.704 196.756 104.904 196.756C102.312 196.756 100.08 196.162 98.208 194.974C96.372 193.786 94.95 192.148 93.942 190.06C92.97 187.936 92.484 185.506 92.484 182.77C92.484 179.602 92.988 176.884 93.996 174.616C95.004 172.312 96.426 170.548 98.262 169.324C100.098 168.064 102.24 167.434 104.688 167.434ZM140.536 179.908V183.04H121.042V179.908H140.536ZM159.33 167.434C160.482 167.434 161.598 167.578 162.678 167.866C163.758 168.154 164.73 168.586 165.594 169.162C166.422 169.702 167.052 170.332 167.484 171.052C167.916 171.736 168.132 172.492 168.132 173.32C168.132 174.292 167.862 175.048 167.322 175.588C166.782 176.092 166.098 176.344 165.27 176.344C164.478 176.344 163.776 176.11 163.164 175.642C162.588 175.174 162.3 174.508 162.3 173.644C162.3 172.816 162.516 172.15 162.948 171.646C163.416 171.142 163.956 170.818 164.568 170.674C164.208 170.026 163.56 169.486 162.624 169.054C161.724 168.622 160.752 168.406 159.708 168.406C158.808 168.406 157.908 168.622 157.008 169.054C156.108 169.486 155.28 170.206 154.524 171.214C153.768 172.186 153.156 173.536 152.688 175.264C152.22 176.956 151.986 179.08 151.986 181.636C151.986 184.804 152.346 187.324 153.066 189.196C153.786 191.068 154.722 192.418 155.874 193.246C157.062 194.038 158.358 194.434 159.762 194.434C160.698 194.434 161.652 194.254 162.624 193.894C163.596 193.534 164.514 192.958 165.378 192.166C166.242 191.338 166.98 190.24 167.592 188.872L168.618 189.25C168.258 190.402 167.664 191.572 166.836 192.76C166.008 193.912 164.928 194.866 163.596 195.622C162.264 196.378 160.626 196.756 158.682 196.756C156.45 196.756 154.434 196.18 152.634 195.028C150.834 193.876 149.394 192.238 148.314 190.114C147.27 187.954 146.748 185.398 146.748 182.446C146.748 179.494 147.27 176.902 148.314 174.67C149.394 172.402 150.888 170.638 152.796 169.378C154.704 168.082 156.882 167.434 159.33 167.434ZM185.321 167.434C187.625 167.434 189.695 167.938 191.531 168.946C193.367 169.954 194.825 171.538 195.905 173.698C197.021 175.858 197.579 178.666 197.579 182.122C197.579 185.578 197.021 188.386 195.905 190.546C194.825 192.67 193.367 194.236 191.531 195.244C189.695 196.252 187.625 196.756 185.321 196.756C183.053 196.756 180.983 196.252 179.111 195.244C177.275 194.236 175.799 192.67 174.683 190.546C173.603 188.386 173.063 185.578 173.063 182.122C173.063 178.666 173.603 175.858 174.683 173.698C175.799 171.538 177.275 169.954 179.111 168.946C180.983 167.938 183.053 167.434 185.321 167.434ZM185.321 168.514C183.269 168.514 181.577 169.576 180.245 171.7C178.949 173.824 178.301 177.298 178.301 182.122C178.301 186.946 178.949 190.42 180.245 192.544C181.577 194.632 183.269 195.676 185.321 195.676C187.373 195.676 189.047 194.632 190.343 192.544C191.675 190.42 192.341 186.946 192.341 182.122C192.341 177.298 191.675 173.824 190.343 171.7C189.047 169.576 187.373 168.514 185.321 168.514ZM219.495 167.434C220.755 167.434 221.853 167.614 222.789 167.974C223.725 168.334 224.499 168.838 225.111 169.486C225.795 170.206 226.263 171.142 226.515 172.294C226.767 173.446 226.893 174.868 226.893 176.56V190.978C226.893 192.49 227.199 193.516 227.811 194.056C228.459 194.596 229.521 194.866 230.997 194.866V196C230.385 195.964 229.449 195.928 228.189 195.892C226.929 195.82 225.705 195.784 224.517 195.784C223.329 195.784 222.159 195.82 221.007 195.892C219.891 195.928 219.045 195.964 218.469 196V194.866C219.765 194.866 220.683 194.596 221.223 194.056C221.763 193.516 222.033 192.49 222.033 190.978V175.372C222.033 174.256 221.961 173.23 221.817 172.294C221.673 171.358 221.313 170.602 220.737 170.026C220.161 169.45 219.225 169.162 217.929 169.162C216.525 169.162 215.265 169.594 214.149 170.458C213.069 171.322 212.205 172.51 211.557 174.022C210.945 175.498 210.639 177.154 210.639 178.99V190.978C210.639 192.49 210.909 193.516 211.449 194.056C211.989 194.596 212.907 194.866 214.203 194.866V196C213.627 195.964 212.763 195.928 211.611 195.892C210.495 195.82 209.343 195.784 208.155 195.784C206.967 195.784 205.743 195.82 204.483 195.892C203.223 195.928 202.287 195.964 201.675 196V194.866C203.151 194.866 204.195 194.596 204.807 194.056C205.455 193.516 205.779 192.49 205.779 190.978V174.076C205.779 172.456 205.491 171.268 204.915 170.512C204.339 169.72 203.259 169.324 201.675 169.324V168.19C202.827 168.298 203.943 168.352 205.023 168.352C206.067 168.352 207.057 168.298 207.993 168.19C208.965 168.046 209.847 167.848 210.639 167.596V173.968C211.575 171.628 212.853 169.954 214.473 168.946C216.093 167.938 217.767 167.434 219.495 167.434ZM235.749 167.434C237.009 167.434 238.107 167.614 239.043 167.974C239.979 168.334 240.753 168.838 241.365 169.486C242.049 170.206 242.517 171.142 242.769 172.294C243.021 173.446 243.147 174.868 243.147 176.56V190.978C243.147 192.49 243.453 193.516 244.065 194.056C244.713 194.596 245.775 194.866 247.251 194.866V196C246.639 195.964 245.703 195.928 244.443 195.892C243.183 195.82 241.959 195.784 240.771 195.784C239.583 195.784 238.413 195.82 237.261 195.892C236.145 195.928 235.299 195.964 234.723 196V194.866C236.019 194.866 236.937 194.596 237.477 194.056C238.017 193.516 238.287 192.49 238.287 190.978V175.372C238.287 174.256 238.215 173.23 238.071 172.294C237.927 171.358 237.567 170.602 236.991 170.026C236.415 169.45 235.479 169.162 234.183 169.162C232.779 169.162 231.519 169.594 230.403 170.458C229.323 171.322 228.459 172.492 227.811 173.968C227.199 175.444 226.893 177.1 226.893 178.936L226.731 173.914C227.703 171.43 229.017 169.738 230.673 168.838C232.329 167.902 234.021 167.434 235.749 167.434ZM267.431 167.434C268.691 167.434 269.789 167.614 270.725 167.974C271.661 168.334 272.435 168.838 273.047 169.486C273.731 170.206 274.199 171.142 274.451 172.294C274.703 173.446 274.829 174.868 274.829 176.56V190.978C274.829 192.49 275.135 193.516 275.747 194.056C276.395 194.596 277.457 194.866 278.933 194.866V196C278.321 195.964 277.385 195.928 276.125 195.892C274.865 195.82 273.641 195.784 272.453 195.784C271.265 195.784 270.095 195.82 268.943 195.892C267.827 195.928 266.981 195.964 266.405 196V194.866C267.701 194.866 268.619 194.596 269.159 194.056C269.699 193.516 269.969 192.49 269.969 190.978V175.372C269.969 174.256 269.897 173.23 269.753 172.294C269.609 171.358 269.249 170.602 268.673 170.026C268.097 169.45 267.161 169.162 265.865 169.162C264.461 169.162 263.201 169.594 262.085 170.458C261.005 171.322 260.141 172.51 259.493 174.022C258.881 175.498 258.575 177.154 258.575 178.99V190.978C258.575 192.49 258.845 193.516 259.385 194.056C259.925 194.596 260.843 194.866 262.139 194.866V196C261.563 195.964 260.699 195.928 259.547 195.892C258.431 195.82 257.279 195.784 256.091 195.784C254.903 195.784 253.679 195.82 252.419 195.892C251.159 195.928 250.223 195.964 249.611 196V194.866C251.087 194.866 252.131 194.596 252.743 194.056C253.391 193.516 253.715 192.49 253.715 190.978V174.076C253.715 172.456 253.427 171.268 252.851 170.512C252.275 169.72 251.195 169.324 249.611 169.324V168.19C250.763 168.298 251.879 168.352 252.959 168.352C254.003 168.352 254.993 168.298 255.929 168.19C256.901 168.046 257.783 167.848 258.575 167.596V173.968C259.511 171.628 260.789 169.954 262.409 168.946C264.029 167.938 265.703 167.434 267.431 167.434ZM283.685 167.434C284.945 167.434 286.043 167.614 286.979 167.974C287.915 168.334 288.689 168.838 289.301 169.486C289.985 170.206 290.453 171.142 290.705 172.294C290.957 173.446 291.083 174.868 291.083 176.56V190.978C291.083 192.49 291.389 193.516 292.001 194.056C292.649 194.596 293.711 194.866 295.187 194.866V196C294.575 195.964 293.639 195.928 292.379 195.892C291.119 195.82 289.895 195.784 288.707 195.784C287.519 195.784 286.349 195.82 285.197 195.892C284.081 195.928 283.235 195.964 282.659 196V194.866C283.955 194.866 284.873 194.596 285.413 194.056C285.953 193.516 286.223 192.49 286.223 190.978V175.372C286.223 174.256 286.151 173.23 286.007 172.294C285.863 171.358 285.503 170.602 284.927 170.026C284.351 169.45 283.415 169.162 282.119 169.162C280.715 169.162 279.455 169.594 278.339 170.458C277.259 171.322 276.395 172.492 275.747 173.968C275.135 175.444 274.829 177.1 274.829 178.936L274.667 173.914C275.639 171.43 276.953 169.738 278.609 168.838C280.265 167.902 281.957 167.434 283.685 167.434ZM310.668 167.434C313.836 167.434 316.302 168.406 318.066 170.35C319.866 172.258 320.766 175.246 320.766 179.314H301.704L301.65 178.288H315.582C315.654 176.524 315.51 174.904 315.15 173.428C314.79 171.916 314.214 170.71 313.422 169.81C312.666 168.91 311.676 168.46 310.452 168.46C308.796 168.46 307.32 169.288 306.024 170.944C304.764 172.6 304.008 175.228 303.756 178.828L303.918 179.044C303.846 179.584 303.792 180.178 303.756 180.826C303.72 181.474 303.702 182.122 303.702 182.77C303.702 185.218 304.098 187.324 304.89 189.088C305.682 190.852 306.708 192.202 307.968 193.138C309.264 194.038 310.596 194.488 311.964 194.488C313.044 194.488 314.07 194.326 315.042 194.002C316.014 193.642 316.914 193.066 317.742 192.274C318.57 191.482 319.29 190.42 319.902 189.088L320.982 189.52C320.586 190.708 319.938 191.86 319.038 192.976C318.138 194.092 317.004 195.01 315.636 195.73C314.268 196.414 312.684 196.756 310.884 196.756C308.292 196.756 306.06 196.162 304.188 194.974C302.352 193.786 300.93 192.148 299.922 190.06C298.95 187.936 298.464 185.506 298.464 182.77C298.464 179.602 298.968 176.884 299.976 174.616C300.984 172.312 302.406 170.548 304.242 169.324C306.078 168.064 308.22 167.434 310.668 167.434ZM341.657 167.434C342.629 167.434 343.475 167.632 344.195 168.028C344.951 168.424 345.527 168.946 345.923 169.594C346.355 170.206 346.571 170.908 346.571 171.7C346.571 172.6 346.283 173.392 345.707 174.076C345.167 174.76 344.429 175.102 343.493 175.102C342.737 175.102 342.071 174.868 341.495 174.4C340.919 173.896 340.631 173.194 340.631 172.294C340.631 171.61 340.811 171.034 341.171 170.566C341.567 170.062 341.999 169.666 342.467 169.378C342.215 169.018 341.837 168.838 341.333 168.838C340.217 168.838 339.191 169.18 338.255 169.864C337.319 170.512 336.527 171.358 335.879 172.402C335.231 173.446 334.727 174.562 334.367 175.75C334.007 176.902 333.827 177.982 333.827 178.99V190.438C333.827 192.202 334.331 193.39 335.339 194.002C336.383 194.578 337.787 194.866 339.551 194.866V196C338.723 195.964 337.553 195.928 336.041 195.892C334.529 195.82 332.927 195.784 331.235 195.784C330.011 195.784 328.787 195.82 327.563 195.892C326.375 195.928 325.475 195.964 324.863 196V194.866C326.339 194.866 327.383 194.596 327.995 194.056C328.643 193.516 328.967 192.49 328.967 190.978V174.076C328.967 172.456 328.679 171.268 328.103 170.512C327.527 169.72 326.447 169.324 324.863 169.324V168.19C326.015 168.298 327.131 168.352 328.211 168.352C329.255 168.352 330.245 168.298 331.181 168.19C332.153 168.046 333.035 167.848 333.827 167.596V174.346C334.223 173.302 334.781 172.258 335.501 171.214C336.257 170.134 337.157 169.234 338.201 168.514C339.245 167.794 340.397 167.434 341.657 167.434ZM361.355 167.434C362.507 167.434 363.623 167.578 364.703 167.866C365.783 168.154 366.755 168.586 367.619 169.162C368.447 169.702 369.077 170.332 369.509 171.052C369.941 171.736 370.157 172.492 370.157 173.32C370.157 174.292 369.887 175.048 369.347 175.588C368.807 176.092 368.123 176.344 367.295 176.344C366.503 176.344 365.801 176.11 365.189 175.642C364.613 175.174 364.325 174.508 364.325 173.644C364.325 172.816 364.541 172.15 364.973 171.646C365.441 171.142 365.981 170.818 366.593 170.674C366.233 170.026 365.585 169.486 364.649 169.054C363.749 168.622 362.777 168.406 361.733 168.406C360.833 168.406 359.933 168.622 359.033 169.054C358.133 169.486 357.305 170.206 356.549 171.214C355.793 172.186 355.181 173.536 354.713 175.264C354.245 176.956 354.011 179.08 354.011 181.636C354.011 184.804 354.371 187.324 355.091 189.196C355.811 191.068 356.747 192.418 357.899 193.246C359.087 194.038 360.383 194.434 361.787 194.434C362.723 194.434 363.677 194.254 364.649 193.894C365.621 193.534 366.539 192.958 367.403 192.166C368.267 191.338 369.005 190.24 369.617 188.872L370.643 189.25C370.283 190.402 369.689 191.572 368.861 192.76C368.033 193.912 366.953 194.866 365.621 195.622C364.289 196.378 362.651 196.756 360.707 196.756C358.475 196.756 356.459 196.18 354.659 195.028C352.859 193.876 351.419 192.238 350.339 190.114C349.295 187.954 348.773 185.398 348.773 182.446C348.773 179.494 349.295 176.902 350.339 174.67C351.419 172.402 352.913 170.638 354.821 169.378C356.729 168.082 358.907 167.434 361.355 167.434ZM387.239 167.434C390.407 167.434 392.873 168.406 394.637 170.35C396.437 172.258 397.337 175.246 397.337 179.314H378.275L378.221 178.288H392.153C392.225 176.524 392.081 174.904 391.721 173.428C391.361 171.916 390.785 170.71 389.993 169.81C389.237 168.91 388.247 168.46 387.023 168.46C385.367 168.46 383.891 169.288 382.595 170.944C381.335 172.6 380.579 175.228 380.327 178.828L380.489 179.044C380.417 179.584 380.363 180.178 380.327 180.826C380.291 181.474 380.273 182.122 380.273 182.77C380.273 185.218 380.669 187.324 381.461 189.088C382.253 190.852 383.279 192.202 384.539 193.138C385.835 194.038 387.167 194.488 388.535 194.488C389.615 194.488 390.641 194.326 391.613 194.002C392.585 193.642 393.485 193.066 394.313 192.274C395.141 191.482 395.861 190.42 396.473 189.088L397.553 189.52C397.157 190.708 396.509 191.86 395.609 192.976C394.709 194.092 393.575 195.01 392.207 195.73C390.839 196.414 389.255 196.756 387.455 196.756C384.863 196.756 382.631 196.162 380.759 194.974C378.923 193.786 377.501 192.148 376.493 190.06C375.521 187.936 375.035 185.506 375.035 182.77C375.035 179.602 375.539 176.884 376.547 174.616C377.555 172.312 378.977 170.548 380.813 169.324C382.649 168.064 384.791 167.434 387.239 167.434Z" fill="white"/>
</svg>
